icons/ruby-16.svg

<svg width="16" height="16" viewBox="0 0 16 16" fill="none" xmlns="http://www.w3.org/2000/svg">
<g clip-path="url(#clip0)">
<path fill-rule="evenodd" clip-rule="evenodd" d="M3.63672 2.29119C3.77875 2.10753 3.99783 2 4.23001 2H11.77C12.0022 2 12.2213 2.10753 12.3633 2.29119L15.8433 6.79119C16.0773 7.09374 16.0461 7.52389 15.771 7.78955L8.52096 14.7896C8.23034 15.0701 7.76968 15.0701 7.47906 14.7896L0.229063 7.78955C-0.0460851 7.52389 -0.0772548 7.09374 0.156719 6.79119L3.63672 2.29119ZM4.59811 3.5L1.7544 7.17722L8.00001 13.2075L14.2456 7.17722L11.4019 3.5H4.59811Z" fill="black"/>
</g>
<defs>
<clipPath id="clip0">
<rect width="16" height="16" fill="white"/>
</clipPath>
</defs>
</svg>

<svg xmlns="http://www.w3.org/2000/svg" width="16" height="16" viewBox="0 0 16 16"><path fill-rule="evenodd" d="M3.637 2.291A.75.75 0 014.23 2h7.54a.75.75 0 01.593.291l3.48 4.5a.75.75 0 01-.072.999l-7.25 7a.75.75 0 01-1.042 0l-7.25-7a.75.75 0 01-.072-.999l3.48-4.5zM4.598 3.5L1.754 7.177 8 13.207l6.246-6.03L11.402 3.5H4.598z"/></svg>
